X: 25926
T: Maura Connolly's
R: reel
M: 4/4
K: Adorian
AB|:cBAG EGAc|BG G2 BGd2|cBAG E3F|GEDB, B,A,A,2|
cBAG EGAc|BG G2 BGd2|cBcd efga|1 gedB BAAB:|2 gedB BAAG||
A2ce aecA|G2Bd gdBG|A2ce a^gaf|gedB BAA2|
a2ed ^cdef|gfga gedB|cBAG E3F|GEDB, B,A,A,2:|

